X:1
T:Waiting for Me
T:Waiting for Me
T:John Robson Sweney
T:Frank Hendricks, 1885
T:Public Domain Courtesy of the Cyber Hymnal™
T:Public Domain Courtesy of the Cyber Hymnal™
C:John Robson Sweney
Z:Public Domain
Z:Courtesy of the Cyber Hymnal™
%%score ( 1 2 ) ( 3 4 )
L:1/8
Q:1/4=86
M:6/8
K:G
V:1 treble 
V:2 treble 
V:3 bass 
V:4 bass 
V:1
 D | [DG]>[DG][DG] [DG][DA][GB] | [Gd]>[Gd][Gd] [Gd]2 [GB] | [Ac]>[Ac][Ac] [GB][GA]G | %4
w: 1.~I|came to the fount- ain that|cleans- eth from sin, The|life- giv- ing fount- ain where|
w: 2.~He|saw me ap- proach- ing, and|ten- der- ly said— “To|pur- chase thy ran- som, My|
w: 3.~I|flew to His mer- cy, O|joy- ful sur- prise! For|lo, my Re- deem- er had|
w: 4.~And|now in His pre- sence I|walk with de- light, And|feel His pro- tect- ion by|
 [FA]>[FA][FA] [FA]2 D | [DG]>[DG][DG] [DG][DA][GB] | [Gd]>[Gd][Gd] [Gd]2 [GB] | %7
w: mill- ions have been; I|came in my weak- ness, o’er-|bur- dened with care, To|
w: blood I have shed; And|if thou art will- ing just|now to be- lieve, The|
w: o- pened mine eyes; I|flew to the ref- uge no|o- ther could give, And|
w: day and by night; I|think of the fount- ain so|pre- cious and free, Where|
 [EA][Ec][Ge] [Gd]>[GB][DG] | D[^CE][=CF] [B,G]3 ||"^Refrain" A4 DB | G3- [DG]2 z | c4 de | %12
w: find my Re- deem- er and|Sav- ior was there.||||
w: light of My Spir- it thy|soul shall re- ceive.”||||
w: faith- ful- ly prom- ised for|Je- sus to live.|Wait- ing for|me, wait-|* ing for|
w: Je- sus, my Sav- ior, was|wait- ing for me.||||
 d3- [Gd]2 z | [^DB]4 [DA][DF] | [FA]3 [EG]2 [EG] | [^CG]4 [CF][CE] | [DA]4 z2 | [B,D]4 [CE][CF] | %18
w: ||||||
w: ||||||
w: me, Je-|* sus, my|Sav- ior, is|wait- ing for|me;|Still at the|
w: ||||||
 [B,G]3- [B,G]2 z | [CA]4 [B,G][CA] | [DB]3- [DB]2 [=FB] | [Ec]4 [Ed][Ge] | %22
w: ||||
w: ||||
w: Fount, *|oft would I|be, * Where|Je- sus, my|
w: ||||
 [Gd]3 !fermata!G2 [GA] | [GB]3 [FB]2 [FA] | [DG]3- [DG]2 |] %25
w: |||
w: |||
w: Sav- ior, Is|wait- ing for|me. *|
w: |||
V:2
 D | x6 | x6 | x5 G | x5 D | x6 | x6 | x6 | D x5 || (DDD D) x2 | DDD x3 | (EEE E) x2 | GGG x3 | %13
 x6 | x6 | x6 | x6 | x6 | x6 | x6 | x6 | x6 | x3 G2 x | x6 | x5 |] %25
V:3
 [G,B,] | [G,B,]>[G,B,][G,B,] [G,B,][G,C][G,D] | [G,B,]>[G,B,][G,B,] [G,B,]2 [G,D] | %3
 [F,D]>[F,D][F,D] [G,D][G,C][G,B,] | [D,D]>[D,D][D,D] [D,D]2 [F,C] | %5
 [G,B,]>[G,B,][G,B,] [G,B,][G,C][G,D] | [G,B,]>[G,B,][G,B,] [G,B,]2 [G,D] | %7
 [C,C][C,C][C,C] [G,B,]>[G,D][G,B,] | [D,F,][D,G,][D,A,] [G,,G,]3 || %9
 ([D,F,][D,F,][D,F,] [D,F,]) z2 | ([G,B,][G,B,][G,B,] [G,B,]2) z | ([C,G,][C,G,][C,G,] [C,G,]) z2 | %12
 ([G,B,][G,B,][G,B,] [G,B,]2) z | ([B,,F,][B,,F,][B,,F,] [B,,F,])[B,,F,][B,,B,] | %14
 ([E,B,][E,B,][E,B,]) [E,B,]2 z | ([E,A,][E,A,][E,A,] [E,A,])[E,A,][E,A,] | %16
 ([D,F,][D,F,][D,F,] [D,F,]2) z | G,G,G, G,2 z | ([G,,D,][G,,D,][G,,D,] [G,,D,]2) z | %19
 ([D,F,][D,F,][D,F,] [D,F,]) z2 | (G,G,G, G,2) G, | ([C,G,][C,G,][C,G,] [C,G,])[C,G,][C,C] | %22
 [G,B,][G,B,][G,B,] !fermata![E,^C]2 [E,C] | ([D,D][D,D][D,D]) ([D,D][D,D])[D,C] | %24
 [G,,G,B,]3- [G,,G,B,]2 |] %25
V:4
 x | x6 | x6 | x6 | x6 | x6 | x6 | x6 | x6 || x6 | x6 | x6 | x6 | x6 | x6 | x6 | x6 | %17
 (G,G,G,) G,2 x | x6 | x6 | G,G,G, G,2 G, | x6 | x6 | x6 | x5 |] %25

